X:1
T:Turn Your Eyes Upon Jesus
T:Turn Your Eyes Upon Jesus
T:for Violin Trio w/ Piano Accompaniment
T:Helen H. Lemmel arranged by A.J. Macalintal
T:Helen H. Lemmel (1864-1961)
T:Arr. © 2017 Resonating Generations Music Group. All rights reserved. Used by permission.
T:Arr. © 2017 Resonating Generations Music Group. All rights reserved. Used by permission.
T:Arr. © 2017 Resonating Generations Music Group. All rights reserved. Used by permission.
T:Arr. © 2017 Resonating Generations Music Group. All rights reserved. Used by permission.
T:Arr. © 2017 Resonating Generations Music Group. All rights reserved. Used by permission.
T:Arr. © 2017 Resonating Generations Music Group. All rights reserved. Used by permission.
C:Helen H. Lemmel
Z:Helen H. Lemmel (1864-1961)
Z:Arr. © 2017 Resonating Generations Music Group. All rights reserved. Used by permission.
%%score 1 2 3 { ( 4 6 ) | ( 5 7 ) }
L:1/8
Q:1/4=80
M:3/4
K:F
V:1 treble nm="Violin" snm="Vln."
V:2 treble nm="Violin" snm="Vln."
V:3 treble nm="Violin" snm="Vln."
V:4 treble nm="Piano" snm="Pno."
V:6 treble 
V:5 bass 
V:7 bass 
V:1
 (uab a4) | (ab a4) | (a2 d'2 c'2) | vf6 | f2 b2 (ag) | a6 | d2 f2 g2 |[M:4/4] vg8- | g8 | %9
[M:3/4] z6 | z6 | z6 | z4 ua2 | (a2 _a2) =a2 | (c'2 b2) a2 | a6 | g4 d2 | f2 e2 f2 | (a2 g2) c2 | %19
 a6 | b7/2 z/ ua2 | (a2 _a2) =a2 | (d'2 c'2) a2 | a6 | ug4 ug2 | a2 =b2 c'2 | e2 f2 d2 | vc6 | %28
 ub6 | va4 a2 | c'3 (a g2) | vf6 | (u_ef ga bc') | (bf) (df Bc) | (f2 ef) c2 | vg4 f2 | e4 (uab) | %37
 c'4 c'2 | (c'2 a2) g2 | f4 (fg) | (f_e _d2) (FG) | A2 F4 | (D2 C2) B,2 | (vCD) C4 | (ED E4) | %45
 _E2 (F2 E2) | vD6 | d2 f2 g2 | va6 |[K:G] vB4 B2 | (d2 e2 f2) | (g4 c'2) | b2 a2 gd | %53
 (cG E2) (EG) | G2 E2 E2 | uA6 | vD6 | (uD6 | u^D6) | (G6 | G4) (uGA) | B4 (AB) | (c2 B2) A2 | %63
 vG6 | A6 | B2 e2 d(c/B/) | c6 | (vA2 G2 c2) | (B2 A2 G2) | (D2 E2) D2 | vD6 | z6 |] %72
V:2
 (ufg f4) | e6 | (_ef) e2 (fe) | (vdc d4) | _d6 | (cB c4) | B2 d2 (dc) |[M:4/4] vd8- | d8 | %9
[M:3/4] z6 | z6 | z6 | z4 ua2 | (a2 _a2) =a2 | (c'2 b2) a2 | a6 | g4 d2 | f2 e2 f2 | (a2 g2) c2 | %19
 a6 | b7/2 z/ ua2 | (a2 _a2) =a2 | b4 ^f2 | d2 e2 f2 | ue4 ue2 | f2 g2 a2 | (ed) (=Bd) B2 | %27
 z2 uG2 A2 | ue6 | vc2 (gf/e/) f2 | g3 (g e2) | vA4 uB2 | A2 (B2 A2) | B2 B2 B2 | d2 B2 A2 | vG6- | %36
 G4 (uAB) | c4 c2 | (F2 G2) _E2 | (D2 B2) d2 | (B2 c2) B2 | A2 F2 C2 | (FG AB de) | vf6 | g6 | %45
 (a2 d'2) (c'b/a/) | vb6 | d2 f2 g2 | ^f2 e2 (dA) |[K:G] vB4 B2 | (d2 e2 d2) | B2 c2 e2 | d4 g2 | %53
 (cB G2) (GB) | c2 G2 G2 | uA6 | vF6 | uG4 F2 | (uG4 F2) | (E6 | _E4) z2 | (vGF) G4 | G2 (G2 D2) | %63
 vD6 | F6 | =F6 | G6 | (v_E4 G2) | (G2 E2 D2) | C4 C2 | vB,6 | z6 |] %72
V:3
 uc6 | c6 | (cd) c2 (cB/A/) | vB6 | B6 | (AG F4) | G2 B2 B2 |[M:4/4] vB8- | B8 |[M:3/4] z6 | z6 | %11
 z6 | z4 ua2 | (a2 _a2) =a2 | (c'2 b2) a2 | a6 | g4 d2 | f2 e2 f2 | (a2 g2) c2 | a6 | b7/2 z/ ua2 | %21
 (a2 _a2) =a2 | f4 d2 | (B4 d2) | uc4 uc2 | (cd) f2 f2 | (e=B) G2 G,2 | z2 uE2 F2 | uc6 | %29
 (vFA cf) c2 | e3 (e c2) | vD4 uG2 | C2 (D2 F2) | (B,D FB) (BA) | G2 GF E2 | vG4 D2 | C4 (uA,B,) | %37
 C4 C2 | (C2 E2) C2 | (B,C) D4 | _D4 (FG) | A4 (GA) | (B2 A2) G2 | (vAB A4) | (AB c4) | %45
 (G2 A2) G2 | vF6 | d2 f2 g2 | vd'6 |[K:G] vB4 B2 | (d3 B A2) | G6 | G4 B2 | c2 c2 (cd) | %54
 e2 c2 (Bc/B/) | vA4 uG2 | (vF2 E2) (DC) | (vB,4 A,2) | uB,6 | (B,6 | _B,4) z2 | z3 vD E2 | %62
 (E2 D2) C2 | vB,6 | D6 | D6 | E6 | (vC4 _E2) | (D2 C2 B,2) | (A,2 G,2) A,2 | vG,6 | z6 |] %72
V:4
 z6 | z6 | z6 | z6 | z6 | z6 | z6 |[M:4/4] z [db][db][ca] [Bg][Fd][Ge][Af] | %8
 g/a/g/a/ f/g/f/g/ efde |[M:3/4] [A,CF]2 [CFA][DFB] [CFA]2- | [CFA]2 [DFB]4 | %11
 z2 [CFA][DFB] [CFA]2- | [CFA]2 [DFB]4 | z2 [CFA][DFB] [CFA]2- | [CFA]2 [DFB]4 | %15
 z2 [B,D][CE] [B,D]2 | [B,DG]4 [B,D]2 | [G,B,CE]6 | FE/D/ E2 C2 | z2 [CFA][DFB] [CFA]2- | %20
 [CFA]2 [DFB]4 | [CEFA]2 [DF_A]2 [CEF=A]2 | [EGBd]2 [FAc]2 [CD^FA]2 | [B,DFA]6 | [CDEG]4 [Gg]2 | %25
 [Aa]2 [=B=b]2 [cc']2 | [Ee]2 [Ff]2 [G=Bd]2 | [CDFB]2 [G,CDE]2 [A,CDF]2 | %28
 z2 [cc']2!8va(! [c'c'']2!8va)! |!f! a/b/g/a/ f/g/f/g/ ab | [cf]e/d/ e2 [EGce]2 | [A,F]6 | %32
 _E4 [CF]2 | [DFB]2 [DFB]2 [DFB]2 | [Dd]2 [DFB]2 A2 | cB/A/ GD [Dd]2 | [Cc]2 [Dd]2 [Ec][B,B] | %37
 [A,CF]4 [B,CG]2 | [A,CF]4 [C_EG]2 | [CD]4 [CD]2 | [_DF]4 z2 | z6 | z6 | a/b/g/a/ f2 ef | %44
 ge/d/ e2 [Ac]2 | [C_EFA]2 [FAd]2 [EGAc]2 | [A,B,D]4 [B,D]2 | G/A/F/G/ EF G2 | %48
 d/c/=B/A/ G/^F/E/D/- D2 |[K:G] [B,DG]2 [CEA]2 [B,DG]2 | [A,DF]4 [A,DF]2 | %51
 [B,G]2 [Cc]2!8va(! [cc']2!8va)! | [B,DG]4 [B,DGB]2 | [Ec][DB] [Ec]2 [Gd]2 | [B,C]4 [B,C]2 | %55
 a/b/a/b/ g/a/f/g/ d2 | a/g/f/e/ d/c/B/A/ Bc | [GABd]4 [FAd]2 | ^d2 B2 AB/A/ | [EG]4 [EG]2 | %60
 G2 g2!8va(! g'2!8va)! | z6 | z6 | z6 | z6 | z6 | z6 | z6 | !arpeggio![dgab]4 [Bdg]2 | %69
 !arpeggio![cda]4 [df]2 | !arpeggio![dg]6 | !fermata![G,A,B,]6 |] %72
V:5
 z6 | z6 | z6 | z6 | z6 | z6 | z6 |[M:4/4] [C,,C,]2 [G,,E,]2 [C,E,G,C]2 [E,G,C]2 | %8
 z G,,C,B,, A,,G,,E,,C,, |[M:3/4] z C,- [C,A,]4 | z D,- [D,B,]4 | z C,- [C,A,]4 | z D,- [D,B,]4 | %13
 z C,- [C,A,]4 | z D,- [D,B,]4 | z D,- [D,G,]4 | [C,G,]4 [C,F,G,]2 | z G,,- [G,,E,]4 | %18
 z G,,- [G,,E,]4 | z C,- [C,A,]4 | z D,- [D,B,]4 | z C, _A,C, =A,2 | [C,G,]2 [A,,F,]2 [D,,D,]2 | %23
 z D,- [D,A,]4 | z G,,- [G,,E,]4 | z C, A,2 [^F,,^F,]2 | z D, =B,A, G,2 | z G,,- [G,,E,]4 | %28
 [C,,C,]6 | z C, A,B, A,F, | z G, ED CG, | z A,, F,E, [D,F,]2 | [C,G,]4 [F,,C,_E,]2 | G,2 A,2 B,2 | %34
 z D, B,2 A,2 | [C,G,B,]6 | C,,G,, C,G, CB,, | [A,,F,]4 [G,,D,G,]2 | [F,,C,F,]4 [A,,F,]2 | %39
 [B,,F,]4 [B,,F,]2 | [_D,_A,]4 z2 | z6 | z6 | z C,- [C,A,]4 | z F,- [F,C]4 | z C,- [C,A,]4 | %46
 [B,,F,]4 B,,,2 | z D,- [D,B,]4 | [D,^F,A,C]6 |[K:G] z D,- [D,A,]4 | z A,,- [A,,F,]4 | %51
 z B,,- [B,,G,]4 | [D,G,B,]6 | z G,, E,G, CE | [A,,E,]4 [A,,E,]2 | z A,, F,A, DA, | D2 A,2 D,C, | %57
 [D,B,]4 [C,A,]2 | [B,,G,]4 [B,,F,]2 | [E,B,]4 [E,B,]2 | [_E,_B,]4 z2 | z6 | z6 | z6 | z6 | z6 | %66
 z6 | z6 |[K:treble] !arpeggio![DGAB]4 [DGA]2 | !arpeggio![DGA]4 [DA]2 | !arpeggio![GB]6 | %71
[K:bass] !fermata![G,,D,]6 |] %72
V:6
 x6 | x6 | x6 | x6 | x6 | x6 | x6 |[M:4/4] x8 | c2 B2 c2 B2 |[M:3/4] x6 | x6 | x6 | x6 | x6 | x6 | %15
 x6 | x6 | x6 | B,4 B,2 | x6 | x6 | x6 | x6 | x6 | x6 | x6 | x6 | x6 | [B,_DG]6 | x6 | x6 | E2 D4 | %32
 D2 C2 B,2 | x6 | x6 | x6 | x6 | x6 | x6 | x6 | x6 | x6 | x6 | x6 | x6 | x6 | x6 | x6 | x6 | %49
[K:G] x6 | x6 | x4!8va(! x2!8va)! | x6 | x6 | x6 | x6 | x6 | x6 | x6 | x6 | [D_E]6 | x6 | x6 | x6 | %64
 x6 | x6 | x6 | x6 | x6 | x6 | x6 | x6 |] %72
V:7
 x6 | x6 | x6 | x6 | x6 | x6 | x6 |[M:4/4] x8 | C,,8 |[M:3/4] F,,6 | F,,6 | F,,6 | F,,6 | F,,6 | %14
 F,,6 | F,,6 | x6 | C,,6 | C,,6 | F,,6 | F,,6 | F,,6 | x6 | G,,6 | C,,6 | F,,6 | G,,6 | C,,6 | x6 | %29
 F,,6 | C,6 | D,,6 | x6 | [B,,F,]6 | G,,6 | x6 | x6 | x6 | x6 | x6 | x6 | x6 | x6 | F,,6 | A,,6 | %45
 F,,6 | x6 | G,,6 | z2 z2 D,,2 |[K:G] G,,6 | D,,6 | E,,6 | z2 z2 D,,2 | C,,6 | x6 | D,,6 | x6 | %57
 x6 | x6 | x6 | x6 | x6 | x6 | x6 | x6 | x6 | x6 | x6 |[K:treble] x6 | x6 | x6 |[K:bass] x6 |] %72

